X: 3783
T: Bishop, The
R: polka
M: 2/4
K: Amajor
Aa2g_|_gf2e|fa ec|dB AG|Aa2g_|_gf2e|fa Bd^|e2 E2:|
Ed2c/B/|ce2d|ca Ac|BE E2|Ac2B/A/|Aa gf|edcB|A2 A,2:|

